svgs/thin/grid.svg

<svg xmlns="http://www.w3.org/2000/svg" viewBox="0 0 448 512"><!--! Font Awesome Pro 6.6.0 by @fontawesome - https://fontawesome.com License - https://fontawesome.com/license (Commercial License) Copyright 2024 Fonticons, Inc. --><path d="M88 48c13.3 0 24 10.7 24 24l0 48c0 13.3-10.7 24-24 24l-48 0c-13.3 0-24-10.7-24-24l0-48c0-13.3 10.7-24 24-24l48 0zM40 32C17.9 32 0 49.9 0 72l0 48c0 22.1 17.9 40 40 40l48 0c22.1 0 40-17.9 40-40l0-48c0-22.1-17.9-40-40-40L40 32zM88 208c13.3 0 24 10.7 24 24l0 48c0 13.3-10.7 24-24 24l-48 0c-13.3 0-24-10.7-24-24l0-48c0-13.3 10.7-24 24-24l48 0zM40 192c-22.1 0-40 17.9-40 40l0 48c0 22.1 17.9 40 40 40l48 0c22.1 0 40-17.9 40-40l0-48c0-22.1-17.9-40-40-40l-48 0zm0 176l48 0c13.3 0 24 10.7 24 24l0 48c0 13.3-10.7 24-24 24l-48 0c-13.3 0-24-10.7-24-24l0-48c0-13.3 10.7-24 24-24zM0 392l0 48c0 22.1 17.9 40 40 40l48 0c22.1 0 40-17.9 40-40l0-48c0-22.1-17.9-40-40-40l-48 0c-22.1 0-40 17.9-40 40zM248 48c13.3 0 24 10.7 24 24l0 48c0 13.3-10.7 24-24 24l-48 0c-13.3 0-24-10.7-24-24l0-48c0-13.3 10.7-24 24-24l48 0zM200 32c-22.1 0-40 17.9-40 40l0 48c0 22.1 17.9 40 40 40l48 0c22.1 0 40-17.9 40-40l0-48c0-22.1-17.9-40-40-40l-48 0zm0 176l48 0c13.3 0 24 10.7 24 24l0 48c0 13.3-10.7 24-24 24l-48 0c-13.3 0-24-10.7-24-24l0-48c0-13.3 10.7-24 24-24zm-40 24l0 48c0 22.1 17.9 40 40 40l48 0c22.1 0 40-17.9 40-40l0-48c0-22.1-17.9-40-40-40l-48 0c-22.1 0-40 17.9-40 40zm88 136c13.3 0 24 10.7 24 24l0 48c0 13.3-10.7 24-24 24l-48 0c-13.3 0-24-10.7-24-24l0-48c0-13.3 10.7-24 24-24l48 0zm-48-16c-22.1 0-40 17.9-40 40l0 48c0 22.1 17.9 40 40 40l48 0c22.1 0 40-17.9 40-40l0-48c0-22.1-17.9-40-40-40l-48 0zM360 48l48 0c13.3 0 24 10.7 24 24l0 48c0 13.3-10.7 24-24 24l-48 0c-13.3 0-24-10.7-24-24l0-48c0-13.3 10.7-24 24-24zM320 72l0 48c0 22.1 17.9 40 40 40l48 0c22.1 0 40-17.9 40-40l0-48c0-22.1-17.9-40-40-40l-48 0c-22.1 0-40 17.9-40 40zm88 136c13.3 0 24 10.7 24 24l0 48c0 13.3-10.7 24-24 24l-48 0c-13.3 0-24-10.7-24-24l0-48c0-13.3 10.7-24 24-24l48 0zm-48-16c-22.1 0-40 17.9-40 40l0 48c0 22.1 17.9 40 40 40l48 0c22.1 0 40-17.9 40-40l0-48c0-22.1-17.9-40-40-40l-48 0zm0 176l48 0c13.3 0 24 10.7 24 24l0 48c0 13.3-10.7 24-24 24l-48 0c-13.3 0-24-10.7-24-24l0-48c0-13.3 10.7-24 24-24zm-40 24l0 48c0 22.1 17.9 40 40 40l48 0c22.1 0 40-17.9 40-40l0-48c0-22.1-17.9-40-40-40l-48 0c-22.1 0-40 17.9-40 40z"/></svg>

<svg xmlns="http://www.w3.org/2000/svg" viewBox="0 0 448 512"><!--! Font Awesome Pro 6.5.2 by @fontawesome - https://fontawesome.com License - https://fontawesome.com/license (Commercial License) Copyright 2024 Fonticons, Inc. --><path d="M88 48c13.3 0 24 10.7 24 24v48c0 13.3-10.7 24-24 24H40c-13.3 0-24-10.7-24-24V72c0-13.3 10.7-24 24-24H88zM40 32C17.9 32 0 49.9 0 72v48c0 22.1 17.9 40 40 40H88c22.1 0 40-17.9 40-40V72c0-22.1-17.9-40-40-40H40zM88 208c13.3 0 24 10.7 24 24v48c0 13.3-10.7 24-24 24H40c-13.3 0-24-10.7-24-24V232c0-13.3 10.7-24 24-24H88zM40 192c-22.1 0-40 17.9-40 40v48c0 22.1 17.9 40 40 40H88c22.1 0 40-17.9 40-40V232c0-22.1-17.9-40-40-40H40zm0 176H88c13.3 0 24 10.7 24 24v48c0 13.3-10.7 24-24 24H40c-13.3 0-24-10.7-24-24V392c0-13.3 10.7-24 24-24zM0 392v48c0 22.1 17.9 40 40 40H88c22.1 0 40-17.9 40-40V392c0-22.1-17.9-40-40-40H40c-22.1 0-40 17.9-40 40zM248 48c13.3 0 24 10.7 24 24v48c0 13.3-10.7 24-24 24H200c-13.3 0-24-10.7-24-24V72c0-13.3 10.7-24 24-24h48zM200 32c-22.1 0-40 17.9-40 40v48c0 22.1 17.9 40 40 40h48c22.1 0 40-17.9 40-40V72c0-22.1-17.9-40-40-40H200zm0 176h48c13.3 0 24 10.7 24 24v48c0 13.3-10.7 24-24 24H200c-13.3 0-24-10.7-24-24V232c0-13.3 10.7-24 24-24zm-40 24v48c0 22.1 17.9 40 40 40h48c22.1 0 40-17.9 40-40V232c0-22.1-17.9-40-40-40H200c-22.1 0-40 17.9-40 40zm88 136c13.3 0 24 10.7 24 24v48c0 13.3-10.7 24-24 24H200c-13.3 0-24-10.7-24-24V392c0-13.3 10.7-24 24-24h48zm-48-16c-22.1 0-40 17.9-40 40v48c0 22.1 17.9 40 40 40h48c22.1 0 40-17.9 40-40V392c0-22.1-17.9-40-40-40H200zM360 48h48c13.3 0 24 10.7 24 24v48c0 13.3-10.7 24-24 24H360c-13.3 0-24-10.7-24-24V72c0-13.3 10.7-24 24-24zM320 72v48c0 22.1 17.9 40 40 40h48c22.1 0 40-17.9 40-40V72c0-22.1-17.9-40-40-40H360c-22.1 0-40 17.9-40 40zm88 136c13.3 0 24 10.7 24 24v48c0 13.3-10.7 24-24 24H360c-13.3 0-24-10.7-24-24V232c0-13.3 10.7-24 24-24h48zm-48-16c-22.1 0-40 17.9-40 40v48c0 22.1 17.9 40 40 40h48c22.1 0 40-17.9 40-40V232c0-22.1-17.9-40-40-40H360zm0 176h48c13.3 0 24 10.7 24 24v48c0 13.3-10.7 24-24 24H360c-13.3 0-24-10.7-24-24V392c0-13.3 10.7-24 24-24zm-40 24v48c0 22.1 17.9 40 40 40h48c22.1 0 40-17.9 40-40V392c0-22.1-17.9-40-40-40H360c-22.1 0-40 17.9-40 40z"/></svg>
